X:49
T:Aimable Vainqueur. [FJ49]
% Easily the longest tune in the collection!
S:Festin joyeux.  Music page 24.
Z:transcribed by Eric Conrad, 2021.
N:NB The meter is given simply as "3"
N:NB In the MS, the G is the bottom line of the staff
N:NB Repeat marks were added at beginning and end.
N:NB The MS repeat mark is 4 vertical dots enclosed by bars on both sides.
N:NB The plus signs seem to indicate some kind of roll or trill.
M:3/4
L:1/4
% K:C clef=treble1 % staff GBdfa
K:C % empty sig and end C (C Major)
|: g | e>dc | c>cd | ec2 | g2g | c'ga | geg | f"^+"e2 |
"^+"def | edc | "^+"B2g | eA2 | ^fdg | a>bc' | "^+"b>ag |
a"^+"^fg | g2 :: d | f>gf | "^+"e2e | aab | ^geb |
c'a>c' | bea | z/b/ "^+"b>a | a2c' | ga2 | "^+"e2e | edc |
g2g | af>a | geg | af>a | geg | gfe |
"^+"d2g | e"^+"c2 | "^+"d2g | abc' | "^+"e>dc | d"^+"d>c | c2 :|


